public/flags/6.svg

<svg width="40" height="40" viewBox="0 0 40 40" fill="none" xmlns="http://www.w3.org/2000/svg">
<path d="M20 0C31.0457 0 39.9999 8.95432 40 20C40 31.0458 31.0457 40 20 40C8.9543 40 0 31.0457 0 20C8.76179e-05 8.95433 8.95436 1.6494e-05 20 0Z" fill="white"/>
<path d="M38.1085 19.9796C38.1085 29.9944 29.9899 38.113 19.9752 38.113C9.96038 38.113 1.8418 29.9944 1.8418 19.9796C1.8418 9.9648 9.96038 1.84619 19.9752 1.84619C29.9899 1.84619 38.1085 9.9648 38.1085 19.9796Z" fill="#6EA644"/>
<path d="M20.4285 9.09956L35.3885 19.9796L20.4285 30.8597L5.46847 19.9796L20.4285 9.09956Z" fill="#FFDB44"/>
<path d="M26.7752 19.9796C26.7752 23.4848 23.9337 26.3263 20.4285 26.3263C16.9233 26.3263 14.0818 23.4848 14.0818 19.9796C14.0818 16.4744 16.9233 13.6329 20.4285 13.6329C23.9337 13.6329 26.7752 16.4744 26.7752 19.9796Z" fill="#0051B5"/>
<path d="M14.6926 17.2596C14.3009 18.084 14.0818 19.0062 14.0818 19.9796C20.6098 18.8916 24.3952 22.0952 25.4719 23.833C26.1158 22.9915 26.5538 21.9842 26.7109 20.8863C23.0842 17.2596 17.1876 16.9574 14.6926 17.2596Z" fill="white"/>
</svg>

<svg xmlns="http://www.w3.org/2000/svg" width="40" height="40" fill="none" viewBox="0 0 40 40"><path fill="#fff" d="M20 0c11.046 0 20 8.954 20 20s-8.954 20-20 20S0 31.046 0 20 8.954 0 20 0"/><path fill="#6ea644" d="M38.109 19.98c0 10.014-8.12 18.133-18.134 18.133S1.842 29.994 1.842 19.98c0-10.015 8.118-18.134 18.133-18.134S38.108 9.965 38.108 19.98"/><path fill="#ffdb44" d="m20.429 9.1 14.96 10.88-14.96 10.88-14.96-10.88z"/><path fill="#0051b5" d="M26.775 19.98a6.347 6.347 0 1 1-12.693 0 6.347 6.347 0 0 1 12.693 0"/><path fill="#fff" d="M14.693 17.26a6.3 6.3 0 0 0-.611 2.72c6.528-1.088 10.313 2.115 11.39 3.853a6.3 6.3 0 0 0 1.239-2.947c-3.627-3.626-9.523-3.929-12.018-3.626"/></svg>
